resources/svg/major-replace.svg

<svg xmlns="http://www.w3.org/2000/svg" viewBox="0 0 20 20" fill="currentColor"><path d="M1.5 0a1.5 1.5 0 0 0-1.5 1.5v5a1.5 1.5 0 0 0 1.5 1.5h5a1.5 1.5 0 0 0 1.5-1.5v-5a1.5 1.5 0 0 0-1.5-1.5h-5zm11.793 7.707a1 1 0 1 0 1.414-1.414l-1.293-1.293h4.086a.5.5 0 0 1 .5.5v3.5a1 1 0 1 0 2 0v-3.5a2.5 2.5 0 0 0-2.5-2.5h-4.086l1.293-1.293a1 1 0 0 0-1.414-1.414l-3 3a1 1 0 0 0 0 1.414l3 3zm-6.586 4.586a1 1 0 0 0-1.414 1.414l1.293 1.293h-4.086a.5.5 0 0 1-.5-.5v-3.5a1 1 0 1 0-2 0v3.5a2.5 2.5 0 0 0 2.5 2.5h4.086l-1.293 1.293a1 1 0 1 0 1.414 1.414l3-3a1 1 0 0 0 0-1.414l-3-3zm13.293 6.207a1.5 1.5 0 0 1-1.5 1.5h-5a1.5 1.5 0 0 1-1.5-1.5v-5a1.5 1.5 0 0 1 1.5-1.5h5a1.5 1.5 0 0 1 1.5 1.5v5z"/></svg>

<svg xmlns="http://www.w3.org/2000/svg" viewBox="0 0 20 20" fill="currentColor"><path d="M1.5 0A1.5 1.5 0 000 1.5v5A1.5 1.5 0 001.5 8h5A1.5 1.5 0 008 6.5v-5A1.5 1.5 0 006.5 0h-5zM13.293 7.707a1 1 0 101.414-1.414L13.414 5H17.5a.5.5 0 01.5.5V9a1 1 0 102 0V5.5A2.5 2.5 0 0017.5 3h-4.086l1.293-1.293A1 1 0 0013.293.293l-3 3a1 1 0 000 1.414l3 3zM6.707 12.293a1 1 0 00-1.414 1.414L6.586 15H2.5a.5.5 0 01-.5-.5V11a1 1 0 10-2 0v3.5A2.5 2.5 0 002.5 17h4.086l-1.293 1.293a1 1 0 101.414 1.414l3-3a1 1 0 000-1.414l-3-3zM20 18.5a1.5 1.5 0 01-1.5 1.5h-5a1.5 1.5 0 01-1.5-1.5v-5a1.5 1.5 0 011.5-1.5h5a1.5 1.5 0 011.5 1.5v5z" fill="#5C5F62"/></svg>
